config/eww/img/database-purple.svg

<?xml version="1.0" encoding="UTF-8" standalone="no"?>
<svg
   version="1.0"
   id="glyph_"
   x="0px"
   y="0px"
   width="85.693359000000001px"
   height="100px"
   sodipodi:docname="database-purple.svg"
   inkscape:version="1.3 (0e150ed6c4, 2023-07-21)"
   xmlns:inkscape="http://www.inkscape.org/namespaces/inkscape"
   xmlns:sodipodi="http://sodipodi.sourceforge.net/DTD/sodipodi-0.dtd"
   xmlns="http://www.w3.org/2000/svg"
   xmlns:svg="http://www.w3.org/2000/svg">
  <defs
     id="defs1" />
  <sodipodi:namedview
     id="namedview1"
     pagecolor="#ffffff"
     bordercolor="#000000"
     borderopacity="0.25"
     inkscape:showpageshadow="2"
     inkscape:pageopacity="0.0"
     inkscape:pagecheckerboard="0"
     inkscape:deskcolor="#d1d1d1"
     inkscape:zoom="2.72"
     inkscape:cx="42.830882"
     inkscape:cy="49.816176"
     inkscape:window-width="1896"
     inkscape:window-height="1000"
     inkscape:window-x="10"
     inkscape:window-y="70"
     inkscape:window-maximized="1"
     inkscape:current-layer="glyph_" />
  <g
     id="">
    <path
       style="fill:#b76cda;stroke-width:0px;fill-opacity:1"
       d="M42.871093999999999 42.822265999999999 Q56.103516000000013 42.822265999999985 67.578125000000000 40.429687999999970 Q79.052733999999987 38.037110000000013 85.693358999999987 33.349610000000013 C85.693358999999987 36.507162000000022 85.693358999999987 40.454102000000006 85.693358999999987 42.822265999999985 Q85.693358999999987 46.679687999999970 79.980468500000029 49.975586499999991 Q74.267577999999958 53.271485000000013 64.355468999999971 55.224610000000013 Q54.492187999999942 57.128906999999998 42.871093999999971 57.128906999999998 Q31.250000000000000 57.128906999999998 21.337891000000013 55.224610000000013 Q11.474608999999987 53.271485000000013 5.737304500000050 49.975586499999991 Q0.000000000000000 46.679687999999970 0.000000000000000 42.822265999999985 C0.000000000000000 39.664713999999975 0.000000000000000 35.717773999999991 0.000000000000000 33.349610000000013 Q6.640625000000000 38.037110000000013 18.115233999999987 40.429687999999970 Q29.638672000000042 42.822265999999985 42.871093999999971 42.822265999999985 zM42.871093999999999 85.693359999999998 Q56.103516000000013 85.693360000000013 67.578125000000000 83.300781499999999 Q79.052733999999987 80.908202999999986 85.693358999999987 76.220702999999986 C85.693358999999987 79.378255333333328 85.693358999999987 83.325195750000006 85.693358999999987 85.693360000000013 Q85.693358999999987 89.550781000000001 79.980468500000029 92.846679500000022 Q74.267577999999958 96.142577999999986 64.355468999999971 98.046875000000028 Q54.492187999999942 100.000000000000028 42.871093999999971 100.000000000000028 Q31.250000000000000 100.000000000000028 21.337891000000013 98.046875000000028 Q11.474608999999987 96.142577999999986 5.737304500000050 92.846679500000022 Q0.000000000000000 89.550781000000001 0.000000000000000 85.693360000000013 C0.000000000000000 82.535807666666670 0.000000000000000 78.588867249999993 0.000000000000000 76.220702999999986 Q6.640625000000000 80.908202999999986 18.115233999999987 83.300781000000001 Q29.638672000000042 85.693360000000013 42.871093999999971 85.693360000000013 zM42.871093999999999 64.257812999999999 Q56.103516000000013 64.257812999999970 67.578125000000000 61.865235000000013 Q79.052733999999987 59.472656999999998 85.693358999999987 54.785156999999998 C85.693358999999987 57.942709000000008 85.693358999999987 61.889648999999991 85.693358999999987 64.257812999999970 Q85.693358999999987 68.115235000000013 79.980468500000029 71.411132999999978 Q74.267577999999958 74.707031000000001 64.355468999999971 76.660156999999998 Q54.492187999999942 78.564452999999986 42.871093999999971 78.564452999999986 Q31.250000000000000 78.564452999999986 21.337891000000013 76.660156999999998 Q11.474608999999987 74.707031000000001 5.737304500000050 71.411132999999978 Q0.000000000000000 68.115235000000013 0.000000000000000 64.257812999999970 C0.000000000000000 61.100261000000017 0.000000000000000 57.153320999999977 0.000000000000000 54.785156999999998 Q6.640625000000000 59.472656999999998 18.115233999999987 61.865235000000013 Q29.638672000000042 64.257813000000027 42.871093999999971 64.257812999999970 zM42.871093999999999 0.000000000000000 Q54.492187999999942 0.000000000000028 64.379883000000063 1.904297000000014 Q74.267577999999958 3.808593999999999 79.980468999999971 7.128906999999998 Q85.693358999999987 10.400390999999985 85.693358999999987 14.257812999999970 C85.693358999999987 16.634114999999980 85.693358999999987 19.604492500000021 85.693358999999987 21.386718999999999 Q85.693358999999987 25.244140999999985 79.980468500000029 28.540039500000006 Q74.267577999999958 31.835937999999970 64.355468999999971 33.789062999999970 Q54.492187999999942 35.693360000000013 42.871093999999971 35.693360000000013 Q31.250000000000000 35.693360000000013 21.337891000000013 33.789062999999970 Q11.474608999999987 31.835937999999970 5.737304500000050 28.540039500000006 Q0.000000000000000 25.244140999999985 0.000000000000000 21.386718999999999 C0.000000000000000 19.010416999999990 0.000000000000000 16.040039500000006 0.000000000000000 14.257812999999970 Q0.000000000000000 10.400390999999985 5.737304500000050 7.104492500000021 Q11.474608999999987 3.808593999999999 21.337891000000013 1.904297000000014 Q31.250000000000000 0.000000000000028 42.871093999999971 0.000000000000028 z"
       id="path__0" />
  </g>
</svg>

<?xml version="1.0" encoding="UTF-8" standalone="no"?>
<svg
   version="1.0"
   id="glyph_"
   x="0px"
   y="0px"
   width="100"
   height="100"
   sodipodi:docname="database-purple.svg"
   inkscape:version="1.3.2 (091e20ef0f, 2023-11-25, custom)"
   xmlns:inkscape="http://www.inkscape.org/namespaces/inkscape"
   xmlns:sodipodi="http://sodipodi.sourceforge.net/DTD/sodipodi-0.dtd"
   xmlns="http://www.w3.org/2000/svg"
   xmlns:svg="http://www.w3.org/2000/svg">
  <defs
     id="defs1" />
  <sodipodi:namedview
     id="namedview1"
     pagecolor="#ffffff"
     bordercolor="#000000"
     borderopacity="0.25"
     inkscape:showpageshadow="2"
     inkscape:pageopacity="0.0"
     inkscape:pagecheckerboard="0"
     inkscape:deskcolor="#d1d1d1"
     inkscape:zoom="2.72"
     inkscape:cx="42.830882"
     inkscape:cy="49.632353"
     inkscape:window-width="1894"
     inkscape:window-height="1022"
     inkscape:window-x="10"
     inkscape:window-y="46"
     inkscape:window-maximized="1"
     inkscape:current-layer="glyph_" />
  <g
     id=""
     transform="translate(7.3,0.92771194)">
    <path
       style="fill:#b76cda;fill-opacity:1;stroke-width:0px"
       d="m 42.871094,42.822266 q 13.232422,0 24.707031,-2.392578 11.474609,-2.392578 18.115234,-7.080078 c 0,3.157552 0,7.104492 0,9.472656 q 0,3.857422 -5.71289,7.15332 -5.712891,3.295899 -15.625,5.249024 -9.863281,1.904297 -21.484375,1.904297 -11.621094,0 -21.533203,-1.904297 Q 11.474609,53.271485 5.7373045,49.975586 0,46.679688 0,42.822266 C 0,39.664714 0,35.717774 0,33.34961 q 6.640625,4.6875 18.115234,7.080078 11.523438,2.392578 24.75586,2.392578 z m 0,42.871094 q 13.232422,0 24.707031,-2.392579 11.474609,-2.392578 18.115234,-7.080078 c 0,3.157552 0,7.104493 0,9.472657 q 0,3.857421 -5.71289,7.15332 -5.712891,3.295898 -15.625,5.200195 Q 54.492188,100 42.871094,100 31.25,100 21.337891,98.046875 11.474609,96.142578 5.7373045,92.84668 0,89.550781 0,85.69336 c 0,-3.157552 0,-7.104493 0,-9.472657 q 6.640625,4.6875 18.115234,7.080078 11.523438,2.392579 24.75586,2.392579 z m 0,-21.435547 q 13.232422,0 24.707031,-2.392578 11.474609,-2.392578 18.115234,-7.080078 c 0,3.157552 0,7.104492 0,9.472656 q 0,3.857422 -5.71289,7.15332 -5.712891,3.295898 -15.625,5.249024 -9.863281,1.904296 -21.484375,1.904296 -11.621094,0 -21.533203,-1.904296 Q 11.474609,74.707031 5.7373045,71.411133 0,68.115235 0,64.257813 c 0,-3.157552 0,-7.104492 0,-9.472656 q 6.640625,4.6875 18.115234,7.080078 11.523438,2.392578 24.75586,2.392578 z M 42.871094,0 q 11.621094,0 21.508789,1.904297 9.887695,1.904297 15.600586,5.22461 5.71289,3.271484 5.71289,7.128906 c 0,2.376302 0,5.34668 0,7.128906 q 0,3.857422 -5.71289,7.153321 -5.712891,3.295898 -15.625,5.249023 Q 54.492188,35.69336 42.871094,35.69336 31.25,35.69336 21.337891,33.789063 11.474609,31.835938 5.7373045,28.54004 0,25.244141 0,21.386719 C 0,19.010417 0,16.04004 0,14.257813 Q 0,10.400391 5.7373045,7.1044925 11.474609,3.808594 21.337891,1.904297 31.25,0 42.871094,0 Z"
       id="path__0" />
  </g>
</svg>
